X:1
T:On the Hallelujah Line
T:On the Hallelujah Line
T:John Robson Sweney
T:J. M. Hobbs, 1894
T:Public Domain Courtesy of the Cyber Hymnal™
T:Public Domain Courtesy of the Cyber Hymnal™
C:John Robson Sweney
Z:Public Domain
Z:Courtesy of the Cyber Hymnal™
%%score ( 1 2 ) ( 3 4 )
L:1/8
Q:1/4=94
M:4/4
K:C
V:1 treble 
V:2 treble 
V:3 bass 
V:4 bass 
V:1
 [EG]>[DF] | [CE]>[CE] [CE]>[CE] [CE]>[CD] C>[CE] | [EG]>[EG] [EG]>[CE] [EG]2 [EG]>[EG] | %3
w: 1.~O the|glo- ry hal- le- lu- jah Has been|ring- ing thro’ my soul, Ev- er|
w: 2.~O the|hal- le- lu- jah cho- rus Is a|glor- ious one to sing, But the|
w: 3.~I’m a|hal- le- lu- jah pil- grim, And I’ll|ne- ver hold my peace Till my|
w: 4.~Then be|rea- dy, faith- ful pil- grims, To go|for- ward in the fight, Take the|
 [FA]>[FA] [FA]>[Fc] [Ec]>G E>C | [B,D]>[A,C] [B,D]>[CE] [B,D]2 [B,G]>[DF] | %5
w: since I came to Je- sus, And His|Spir- it made me whole; Now my|
w: soul’s true hal- le- lu- jah Is a-|wak- ened by our king; For the|
w: bless- èd Sav- ior tells me, Then, then|on- ly will I cease To in-|
w: Spir- it’s blade of vic- tory, Wield- ing|it with all your might, For with|
 [CE]>[CE] [CE]>[CE] [CE]>[CD] C>[CE] | [EG]>[EG] [EG]>[CE] [EG]2 [Fc]>[Fd] | %7
w: spir- it, soul and bo- dy All are|un- der His con- trol, On the|
w: joy of His sal- va- tion Makes the|heart with mu- sic ring, On the|
w: vite poor, hun- gry sin- ners, “Come and|share the Gos- pel feast,” On the|
w: faith in God we con- quer, And we’ll|praise Him with de- light, On the|
 [Ge]>[Ge] [Ge]>[Ec] [Fd]2 [Fd]2 | [Ec]6 z2 ||"^Refrain" [EG]4 [CE]2 z2 | [Ec]4 [EG]2 [Ec]2 | %11
w: glo- ry hal- le- lu- jah|line.|||
w: glo- ry hal- le- lu- jah|line.|Glo- ry,|glo- ry! Oh|
w: glo- ry hal- le- lu- jah|line.|||
w: glo- ry hal- le- lu- jah|line.|||
 [Ge]2 [Ec]2 [Fd]>[Ec] [EG]>[CE] | [B,D]6 [CG]>[CF] x2 | [CE]>[CE] [CE]>[CE] [CE]>[CD] C>[CE] | %14
w: |||
w: yes, ’tis glo- ry in my|soul Ev- er|since I came to Je- sus, And His|
w: |||
w: |||
 [EG]>[EG] [EG]>[CE] [EG]2 [Fc]>[Fd] | [Ge]>[Ge] [Ge]>[Ec] [Fd]2 [Fd]2 | [Ec]6 |] %17
w: |||
w: Spir- it made me whole, I’ve been|on the hal- le- lu- jah|line.|
w: |||
w: |||
V:2
 x2 | x6 C3/2 x/ | x8 | x11/2 G/ E>C | x8 | x6 C3/2 x/ | x8 | x8 | x8 || x8 | x8 | x8 | x10 | %13
 x6 C3/2 x/ | x8 | x8 | x6 |] %17
V:3
 [C,C]>[C,G,] | [C,G,]>[C,G,] [C,G,]>[C,G,] [C,G,]>[C,F,] [C,E,]>[C,G,] | %2
w: ~ ~|~ ~ ~ ~ ~ ~ ~ ~|
 [C,C]>[C,C] [C,C]>[C,G,] [C,C]2 [C,C]>[C,C] | [F,C]>[F,C] [F,C]>[F,A,] [C,G,]>G, E,>C, | %4
w: ~ ~ ~ ~ ~ ~ ~|~ ~ ~ ~ ~ ~ ~ ~|
 [G,,G,]>[G,,G,] [G,,G,]>[G,,G,] [G,,G,]2 [G,,D,]>[G,,G,] | %5
w: ~ ~ ~ ~ ~ ~ ~|
 [C,G,]>[C,G,] [C,G,]>[C,G,] [C,G,]>[C,F,] [C,E,]>[C,G,] | %6
w: ~ ~ ~ ~ ~ ~ ~ ~|
 [C,C]>[C,C] [C,C]>[C,G,] [C,C]2 [A,C]>[_A,C] | [G,C]>[G,C] [G,C]>[G,C] [G,,G,B,]2 [G,,G,B,]2 | %8
w: ~ ~ ~ ~ ~ ~ ~|~ ~ ~ ~ ~ ~|
 [C,C]6 z2 || [C,C]4 [C,G,]2 z2 | [C,G,]4 [C,C]2 [C,C]2 | %11
w: ~|~ ~|~ ~ ~|
 [C,C]2 [C,G,]2 [C,G,]>[C,G,] [C,G,]>[C,G,] | G,6 G,>F,[E,G,]>[D,G,] | %13
w: ~ ~ ~ ~ ~ ~|~ Hal- le- lu- jah!|
 [C,G,]>[C,G,] [C,G,]>[C,G,] [C,G,]>[C,F,] [C,E,]>[C,G,] | %14
w: |
 [C,C]>[C,C] [C,C]>[C,G,] [C,C]2 [A,C]>[_A,C] | [G,C]>[G,C] [G,C]>[G,C] [G,,G,B,]2 [G,,G,B,]2 | %16
w: ||
 [C,C]6 |] %17
w: |
V:4
 x2 | x8 | x8 | x11/2 G,/ E,>C, | x8 | x8 | x8 | x8 | x8 || x8 | x8 | x8 | G,,2 G,>G, x6 | x8 | %14
 x8 | x8 | x6 |] %17

